X: 19545
T: James Byrne's
R: slip jig
M: 9/8
K: Gmajor
D|G2g dBG GFG|EFG ABG FED|G2g dBG GFG|EFG AFD G2:|
|:B|AFD AFD DEF|GAB cBA BAG|AFD AFD DEF|GAB cAF G2:|

